docs/assets/images/bg_brain.svg

<svg width="296" height="296" viewBox="0 0 296 296" fill="none" xmlns="http://www.w3.org/2000/svg">
<path d="M296 164C296 181.334 292.586 198.499 285.952 214.514C279.318 230.529 269.595 245.081 257.338 257.338C245.081 269.595 230.529 279.318 214.514 285.952C198.499 292.586 181.334 296 164 296V292.04C180.814 292.04 197.464 288.728 212.999 282.294C228.533 275.859 242.648 266.428 254.538 254.538C266.428 242.648 275.859 228.533 282.294 212.999C288.728 197.464 292.04 180.814 292.04 164H296Z" fill="#F1F3F5"/>
<path d="M296 132C296 114.666 292.586 97.5008 285.952 81.4858C279.318 65.4708 269.595 50.9192 257.338 38.6619C245.081 26.4046 230.529 16.6815 214.514 10.0479C198.499 3.41428 181.334 0 164 0V3.95999C180.814 3.95999 197.464 7.27185 212.999 13.7065C228.533 20.1411 242.648 29.5724 254.538 41.462C266.428 53.3517 275.859 67.4667 282.294 83.0012C288.728 98.5357 292.04 115.186 292.04 132H296Z" fill="#F1F3F5"/>
<path d="M0 132C0 114.666 3.41428 97.5008 10.0479 81.4858C16.6815 65.4708 26.4046 50.9192 38.6619 38.6619C50.9192 26.4046 65.4708 16.6815 81.4858 10.0479C97.5008 3.41428 114.666 0 132 0V3.95999C115.186 3.95999 98.5358 7.27185 83.0012 13.7065C67.4667 20.1411 53.3517 29.5724 41.462 41.462C29.5724 53.3517 20.1411 67.4667 13.7065 83.0012C7.27185 98.5357 3.95999 115.186 3.95999 132H0Z" fill="#F1F3F5"/>
<path d="M0 164C0 181.334 3.41428 198.499 10.0479 214.514C16.6815 230.529 26.4046 245.081 38.6619 257.338C50.9192 269.595 65.4708 279.318 81.4858 285.952C97.5008 292.586 114.666 296 132 296V292.04C115.186 292.04 98.5358 288.728 83.0012 282.294C67.4667 275.859 53.3517 266.428 41.462 254.538C29.5724 242.648 20.1411 228.533 13.7065 212.999C7.27185 197.464 3.95999 180.814 3.95999 164H0Z" fill="#F1F3F5"/>
<path d="M285.952 214.514C272.555 246.858 246.858 272.555 214.514 285.952L212.999 282.294C244.372 269.298 269.298 244.372 282.294 212.999L285.952 214.514Z" fill="#87D7FB"/>
<path d="M285.952 81.4858C272.555 49.1421 246.858 23.4451 214.514 10.0479L212.999 13.7065C244.372 26.7017 269.298 51.6278 282.294 83.0012L285.952 81.4858Z" fill="#F2751C"/>
<path d="M10.0479 81.4858C23.4451 49.1421 49.1421 23.4451 81.4858 10.0479L83.0012 13.7065C51.6278 26.7017 26.7018 51.6278 13.7065 83.0012L10.0479 81.4858Z" fill="#40BE8C"/>
<path d="M10.0479 214.514C23.4451 246.858 49.1421 272.555 81.4858 285.952L83.0012 282.294C51.6278 269.298 26.7018 244.372 13.7065 212.999L10.0479 214.514Z" fill="#FECC4D"/>
<path d="M134.25 70.375C125.643 70.375 118.319 75.895 115.525 83.6C103.213 87.8838 94.35 99.6425 94.35 113.5C94.35 117.295 95.0625 120.946 96.2595 124.31C86.484 131.641 80.1 143.371 80.1 156.625C80.1 170.655 87.225 182.989 97.998 190.205C97.485 192.333 97.2 194.575 97.2 196.875C97.2 212.745 109.968 225.625 125.7 225.625C130.887 225.625 135.76 224.188 139.95 221.744C142.03 220.536 143.94 219.07 145.65 217.402V73.9975C143.94 72.79 142.002 71.8412 139.95 71.2087C138.154 70.6625 136.245 70.375 134.25 70.375ZM139.95 102.575C138.217 103.409 136.299 103.915 134.25 103.915C133.213 103.915 132.207 103.794 131.238 103.567C130.65 101.025 128.402 99.125 125.7 99.125C122.551 99.125 120 101.698 120 104.875C120 108.052 122.551 110.625 125.7 110.625C126.766 110.625 127.749 110.312 128.604 109.8C130.394 110.332 132.286 110.625 134.25 110.625C136.231 110.625 138.143 110.323 139.95 109.78V158.428C139.152 157.807 138.172 157.24 137.091 156.717C137.091 156.688 137.1 156.657 137.1 156.625C137.1 153.448 134.549 150.875 131.4 150.875C128.251 150.875 125.7 153.448 125.7 156.625C125.7 159.802 128.251 162.375 131.4 162.375C132.435 162.375 133.395 162.076 134.23 161.587C136.499 162.585 138.474 163.821 139.95 165.267V214.815C136.045 217.978 131.086 219.875 125.7 219.875C113.103 219.875 102.9 209.583 102.9 196.875C102.9 195.581 103.042 194.345 103.242 193.109C103.556 191.157 104.097 189.288 104.864 187.537L104.878 187.534C106.383 184.127 108.694 181.175 111.55 178.883C112.368 179.34 113.297 179.625 114.3 179.625C117.449 179.625 120 177.052 120 173.875C120 170.698 117.449 168.125 114.3 168.125C111.151 168.125 108.6 170.698 108.6 173.875C108.6 173.884 108.603 173.892 108.603 173.901C104.949 176.681 101.977 180.326 99.9873 184.538C91.4116 178.271 85.8 168.122 85.8 156.625C85.8 145.671 90.873 135.925 98.7675 129.629C101.233 133.809 104.633 137.36 108.663 140.01C108.979 142.882 111.367 145.125 114.3 145.125C117.449 145.125 120 142.552 120 139.375C120 136.198 117.449 133.625 114.3 133.625C113.052 133.625 111.906 134.042 110.968 134.729C107.805 132.556 105.109 129.715 103.219 126.415C103.219 126.415 103.208 126.42 103.225 126.409C102.284 124.77 101.623 122.987 101.053 121.119C100.312 118.732 99.9816 116.145 99.9816 113.5C99.9816 103.351 105.83 94.5825 114.266 90.3563C116.432 89.2637 118.757 88.4875 121.18 88.0562C121.607 85.7562 122.642 83.6862 124.067 81.9612C126.489 79 130.14 77.0737 134.244 77.0737C136.296 77.0737 138.211 77.5913 139.95 78.425V102.575ZM128.55 104.875C128.55 106.462 127.273 107.75 125.7 107.75C124.127 107.75 122.85 106.462 122.85 104.875C122.85 103.288 124.127 102 125.7 102C127.273 102 128.55 103.288 128.55 104.875ZM134.25 156.625C134.25 158.212 132.973 159.5 131.4 159.5C129.827 159.5 128.55 158.212 128.55 156.625C128.55 155.038 129.827 153.75 131.4 153.75C132.973 153.75 134.25 155.038 134.25 156.625ZM111.45 173.875C111.45 172.288 112.727 171 114.3 171C115.873 171 117.15 172.288 117.15 173.875C117.15 175.462 115.873 176.75 114.3 176.75C112.727 176.75 111.45 175.462 111.45 173.875ZM111.45 139.375C111.45 137.788 112.727 136.5 114.3 136.5C115.873 136.5 117.15 137.788 117.15 139.375C117.15 140.962 115.873 142.25 114.3 142.25C112.727 142.25 111.45 140.962 111.45 139.375ZM200.74 124.31C201.938 120.946 202.65 117.295 202.65 113.5C202.65 99.6425 193.786 87.8838 181.474 83.6C178.681 75.895 171.357 70.375 162.75 70.375C160.755 70.375 158.845 70.6625 157.05 71.2087C154.998 71.8412 154.2 72.79 151.35 73.9975V217.402C154.2 219.07 154.969 220.536 157.05 221.744C161.239 224.188 166.113 225.625 171.3 225.625C187.032 225.625 199.8 212.745 199.8 196.875C199.8 194.575 199.515 192.333 199.002 190.205C209.775 182.989 216.9 170.655 216.9 156.625C216.9 143.371 210.516 131.641 200.74 124.31ZM197.013 184.538C195.023 180.326 191.25 176.681 188.4 173.901C188.4 173.892 188.4 173.884 188.4 173.875C188.4 170.698 185.849 168.125 182.7 168.125C179.551 168.125 177 170.698 177 173.875C177 177.052 179.551 179.625 182.7 179.625C183.703 179.625 184.632 179.34 185.45 178.883C188.306 181.177 190.617 184.13 192.122 187.534L192.136 187.537C192.903 189.288 193.445 191.157 193.758 193.109C193.958 194.345 194.1 195.581 194.1 196.875C194.1 209.583 183.897 219.875 171.3 219.875C165.913 219.875 160.954 217.978 157.05 214.815V165.267C158.526 163.821 160.501 162.585 162.77 161.587C163.605 162.076 164.565 162.375 165.6 162.375C168.749 162.375 171.3 159.802 171.3 156.625C171.3 153.448 168.749 150.875 165.6 150.875C162.451 150.875 159.9 153.448 159.9 156.625C159.9 156.657 159.909 156.688 159.909 156.72C158.826 157.243 157.848 157.809 157.05 158.43V109.78C158.857 110.323 160.769 110.625 162.75 110.625C164.714 110.625 166.606 110.332 168.396 109.8C169.251 110.312 170.234 110.625 171.3 110.625C174.449 110.625 177 108.052 177 104.875C177 101.698 174.449 99.125 171.3 99.125C168.598 99.125 166.35 101.025 165.762 103.57C164.793 103.797 163.787 103.918 162.75 103.918C160.701 103.918 159.9 103.412 157.05 102.578V78.425C159.9 77.5913 160.704 77.0737 162.756 77.0737C166.86 77.0737 170.511 79 172.933 81.9612C174.358 83.6862 175.393 85.7562 175.82 88.0562C178.243 88.4875 180.568 89.2637 182.734 90.3563C191.17 94.5825 197.018 103.351 197.018 113.5C197.018 116.145 196.688 118.732 195.947 121.119C195.377 122.987 194.716 124.77 193.775 126.409C193.792 126.417 193.781 126.415 193.781 126.415C191.891 129.715 189.195 132.556 186.032 134.729C185.094 134.042 183.948 133.625 182.7 133.625C179.551 133.625 177 136.198 177 139.375C177 142.552 179.551 145.125 182.7 145.125C185.633 145.125 188.021 142.882 188.337 140.01C192.367 137.36 195.764 133.809 198.232 129.629C206.127 135.925 211.2 145.671 211.2 156.625C211.2 168.122 205.588 178.271 197.013 184.538ZM185.55 173.875C185.55 175.462 184.273 176.75 182.7 176.75C181.127 176.75 179.85 175.462 179.85 173.875C179.85 172.288 181.127 171 182.7 171C184.273 171 185.55 172.288 185.55 173.875ZM162.75 156.625C162.75 155.038 164.027 153.75 165.6 153.75C167.173 153.75 168.45 155.038 168.45 156.625C168.45 158.212 167.173 159.5 165.6 159.5C164.027 159.5 162.75 158.212 162.75 156.625ZM168.45 104.875C168.45 103.288 169.727 102 171.3 102C172.873 102 174.15 103.288 174.15 104.875C174.15 106.462 172.873 107.75 171.3 107.75C169.727 107.75 168.45 106.462 168.45 104.875ZM185.55 139.375C185.55 140.962 184.273 142.25 182.7 142.25C181.127 142.25 179.85 140.962 179.85 139.375C179.85 137.788 181.127 136.5 182.7 136.5C184.273 136.5 185.55 137.788 185.55 139.375ZM216.786 115.513C216.814 114.823 216.9 114.19 216.9 113.5C216.9 95.3013 206.383 79.6038 191.193 72.1575C186.547 62.6125 176.857 56 165.6 56C159.188 56 154.2 58.185 148.5 61.7787C143.74 58.185 137.812 56 131.4 56C120.142 56 110.452 62.6125 105.807 72.1575C90.6165 79.6038 80.1 95.3013 80.1 113.5C80.1 114.19 80.1855 114.823 80.214 115.513C69.612 125.949 63 140.496 63 156.625C63 174.191 70.8375 189.889 83.121 200.44C84.9165 222.577 103.271 240 125.7 240C134.079 240 141.888 237.527 148.5 233.301C155.112 237.527 162.921 240 171.3 240C193.729 240 212.083 222.577 213.879 200.44C226.162 189.889 234 174.191 234 156.625C234 140.496 227.388 125.949 216.786 115.513ZM213.736 191.758C212.055 193.54 210.259 195.208 208.35 196.731V196.875C208.35 199.75 208.008 202.539 207.381 205.213C203.647 221.83 188.913 234.25 171.3 234.25C162.693 234.25 154.799 231.26 148.5 226.286C142.201 231.26 134.307 234.25 125.7 234.25C108.087 234.25 93.3525 221.83 89.619 205.213C88.992 202.539 88.65 199.75 88.65 196.875V196.731C86.7405 195.208 84.945 193.54 83.2635 191.758C74.6565 182.615 69.327 170.253 69.327 156.625C69.327 144.09 73.83 132.619 81.2685 123.706C82.779 121.895 84.432 120.228 86.1705 118.646C85.9425 116.979 85.8 115.254 85.8 113.5C85.8 112.522 85.8855 111.545 85.9425 110.596C86.8545 97.9463 93.495 86.935 103.299 80.2075C105.436 78.7125 107.745 77.4475 110.167 76.4125C111.279 73.5662 112.903 71.0075 114.955 68.8225C119.116 64.4812 124.93 61.75 131.4 61.75C138.211 61.75 144.31 64.7975 148.5 69.57C151.35 64.7975 158.788 61.75 165.6 61.75C172.069 61.75 177.883 64.4812 182.044 68.8225C184.096 71.0075 185.721 73.5662 186.832 76.4125C189.255 77.4475 191.563 78.7125 193.701 80.2075C203.505 86.935 210.145 97.9463 211.057 110.596C211.115 111.545 211.2 112.522 211.2 113.5C211.2 115.254 211.057 116.979 210.829 118.646C212.568 120.228 214.221 121.895 215.731 123.706C223.17 132.619 227.673 144.09 227.673 156.625C227.673 170.253 222.343 182.615 213.736 191.758Z" fill="#F1F3F5"/>
</svg>

<svg width="296" height="296" viewBox="0 0 296 296" fill="none" xmlns="http://www.w3.org/2000/svg"><path d="M296 164a131.994 131.994 0 0 1-38.662 93.338A132.008 132.008 0 0 1 164 296v-3.96a128.05 128.05 0 0 0 118.294-79.041A128.056 128.056 0 0 0 292.04 164H296zM296 132a131.995 131.995 0 0 0-81.486-121.952A132 132 0 0 0 164 0v3.96a128.044 128.044 0 0 1 118.294 79.041A128.053 128.053 0 0 1 292.04 132H296zM0 132A132.002 132.002 0 0 1 132 0v3.96A128.041 128.041 0 0 0 3.96 132H0zM0 164a132 132 0 0 0 132 132v-3.96A128.043 128.043 0 0 1 3.96 164H0z" fill="#F1F3F5"/><path d="M285.952 214.514a131.997 131.997 0 0 1-71.438 71.438l-1.515-3.658a128.048 128.048 0 0 0 69.295-69.295l3.658 1.515z" fill="#87D7FB"/><path d="M285.952 81.486a131.999 131.999 0 0 0-71.438-71.438l-1.515 3.659A128.044 128.044 0 0 1 282.294 83l3.658-1.515z" fill="#F2751C"/><path d="M10.048 81.486a132 132 0 0 1 71.438-71.438L83 13.707A128.04 128.04 0 0 0 13.707 83l-3.66-1.515z" fill="#40BE8C"/><path d="M10.048 214.514a131.999 131.999 0 0 0 71.438 71.438L83 282.294a128.044 128.044 0 0 1-69.294-69.295l-3.66 1.515z" fill="#FECC4D"/><path d="M134.25 70.375c-8.607 0-15.931 5.52-18.725 13.225-12.312 4.284-21.175 16.043-21.175 29.9 0 3.795.713 7.446 1.91 10.81-9.776 7.331-16.16 19.061-16.16 32.315 0 14.03 7.125 26.364 17.898 33.58a28.487 28.487 0 0 0-.798 6.67c0 15.87 12.768 28.75 28.5 28.75 5.187 0 10.06-1.437 14.25-3.881a29.111 29.111 0 0 0 5.7-4.342V73.998a20.254 20.254 0 0 0-5.7-2.79 19.534 19.534 0 0 0-5.7-.833zm5.7 32.2c-1.733.834-3.651 1.34-5.7 1.34-1.037 0-2.043-.121-3.012-.348-.588-2.542-2.836-4.442-5.538-4.442-3.149 0-5.7 2.573-5.7 5.75s2.551 5.75 5.7 5.75a5.624 5.624 0 0 0 2.904-.825c1.79.532 3.682.825 5.646.825 1.981 0 3.893-.302 5.7-.845v48.648c-.798-.621-1.778-1.188-2.859-1.711 0-.029.009-.06.009-.092 0-3.177-2.551-5.75-5.7-5.75s-5.7 2.573-5.7 5.75 2.551 5.75 5.7 5.75a5.58 5.58 0 0 0 2.83-.788c2.269.998 4.244 2.234 5.72 3.68v49.548c-3.905 3.163-8.864 5.06-14.25 5.06-12.597 0-22.8-10.292-22.8-23 0-1.294.142-2.53.342-3.766a22.948 22.948 0 0 1 1.622-5.572l.014-.003a23.053 23.053 0 0 1 6.672-8.651c.818.457 1.747.742 2.75.742 3.149 0 5.7-2.573 5.7-5.75s-2.551-5.75-5.7-5.75-5.7 2.573-5.7 5.75c0 .009.003.017.003.026a28.871 28.871 0 0 0-8.616 10.637c-8.575-6.267-14.187-16.416-14.187-27.913 0-10.954 5.073-20.7 12.968-26.996a31.744 31.744 0 0 0 9.895 10.381c.316 2.872 2.704 5.115 5.637 5.115 3.149 0 5.7-2.573 5.7-5.75s-2.551-5.75-5.7-5.75a5.618 5.618 0 0 0-3.332 1.104c-3.163-2.173-5.859-5.014-7.749-8.314 0 0-.011.005.006-.006-.941-1.639-1.602-3.422-2.172-5.29-.741-2.387-1.071-4.974-1.071-7.619 0-10.149 5.848-18.918 14.284-23.144a25.108 25.108 0 0 1 6.914-2.3c.427-2.3 1.462-4.37 2.887-6.095 2.422-2.961 6.073-4.887 10.177-4.887 2.052 0 3.967.517 5.706 1.351v24.15zm-11.4 2.3c0 1.587-1.277 2.875-2.85 2.875-1.573 0-2.85-1.288-2.85-2.875S124.127 102 125.7 102c1.573 0 2.85 1.288 2.85 2.875zm5.7 51.75c0 1.587-1.277 2.875-2.85 2.875-1.573 0-2.85-1.288-2.85-2.875s1.277-2.875 2.85-2.875c1.573 0 2.85 1.288 2.85 2.875zm-22.8 17.25c0-1.587 1.277-2.875 2.85-2.875 1.573 0 2.85 1.288 2.85 2.875s-1.277 2.875-2.85 2.875c-1.573 0-2.85-1.288-2.85-2.875zm0-34.5c0-1.587 1.277-2.875 2.85-2.875 1.573 0 2.85 1.288 2.85 2.875s-1.277 2.875-2.85 2.875c-1.573 0-2.85-1.288-2.85-2.875zm89.29-15.065c1.198-3.364 1.91-7.015 1.91-10.81 0-13.858-8.864-25.616-21.176-29.9-2.793-7.705-10.117-13.225-18.724-13.225a19.53 19.53 0 0 0-5.7.834c-2.052.632-2.85 1.581-5.7 2.788v143.405c2.85 1.668 3.619 3.134 5.7 4.342 4.189 2.444 9.063 3.881 14.25 3.881 15.732 0 28.5-12.88 28.5-28.75 0-2.3-.285-4.542-.798-6.67 10.773-7.216 17.898-19.55 17.898-33.58 0-13.254-6.384-24.984-16.16-32.315zm-3.727 60.228c-1.99-4.212-5.763-7.857-8.613-10.637v-.026c0-3.177-2.551-5.75-5.7-5.75s-5.7 2.573-5.7 5.75 2.551 5.75 5.7 5.75c1.003 0 1.932-.285 2.75-.742a23.092 23.092 0 0 1 6.672 8.651l.014.003a22.904 22.904 0 0 1 1.622 5.572c.2 1.236.342 2.472.342 3.766 0 12.708-10.203 23-22.8 23a22.568 22.568 0 0 1-14.25-5.06v-49.548c1.476-1.446 3.451-2.682 5.72-3.68a5.58 5.58 0 0 0 2.83.788c3.149 0 5.7-2.573 5.7-5.75s-2.551-5.75-5.7-5.75-5.7 2.573-5.7 5.75c0 .032.009.063.009.095-1.083.523-2.061 1.089-2.859 1.71v-48.65c1.807.543 3.719.845 5.7.845 1.964 0 3.856-.293 5.646-.825a5.624 5.624 0 0 0 2.904.825c3.149 0 5.7-2.573 5.7-5.75s-2.551-5.75-5.7-5.75c-2.702 0-4.95 1.9-5.538 4.445-.969.227-1.975.348-3.012.348-2.049 0-2.85-.506-5.7-1.34V78.425c2.85-.834 3.654-1.351 5.706-1.351 4.104 0 7.755 1.926 10.177 4.887 1.425 1.725 2.46 3.795 2.887 6.095a25.108 25.108 0 0 1 6.914 2.3c8.436 4.227 14.284 12.995 14.284 23.144 0 2.645-.33 5.232-1.071 7.619-.57 1.868-1.231 3.651-2.172 5.29.017.008.006.006.006.006-1.89 3.3-4.586 6.141-7.749 8.314a5.618 5.618 0 0 0-3.332-1.104c-3.149 0-5.7 2.573-5.7 5.75s2.551 5.75 5.7 5.75c2.933 0 5.321-2.243 5.637-5.115a31.768 31.768 0 0 0 9.895-10.381 34.436 34.436 0 0 1 12.968 26.996c0 11.497-5.612 21.646-14.187 27.913zm-11.463-10.663c0 1.587-1.277 2.875-2.85 2.875-1.573 0-2.85-1.288-2.85-2.875S181.127 171 182.7 171c1.573 0 2.85 1.288 2.85 2.875zm-22.8-17.25c0-1.587 1.277-2.875 2.85-2.875 1.573 0 2.85 1.288 2.85 2.875s-1.277 2.875-2.85 2.875c-1.573 0-2.85-1.288-2.85-2.875zm5.7-51.75c0-1.587 1.277-2.875 2.85-2.875 1.573 0 2.85 1.288 2.85 2.875s-1.277 2.875-2.85 2.875c-1.573 0-2.85-1.288-2.85-2.875zm17.1 34.5c0 1.587-1.277 2.875-2.85 2.875-1.573 0-2.85-1.288-2.85-2.875s1.277-2.875 2.85-2.875c1.573 0 2.85 1.288 2.85 2.875zm31.236-23.862c.028-.69.114-1.323.114-2.013 0-18.199-10.517-33.896-25.707-41.343C186.547 62.614 176.857 56 165.6 56c-6.412 0-11.4 2.185-17.1 5.779C143.74 58.185 137.812 56 131.4 56c-11.258 0-20.948 6.612-25.593 16.157C90.617 79.605 80.1 95.302 80.1 113.5c0 .69.086 1.323.114 2.013C69.612 125.949 63 140.496 63 156.625c0 17.566 7.838 33.264 20.121 43.815C84.917 222.577 103.271 240 125.7 240c8.379 0 16.188-2.473 22.8-6.699 6.612 4.226 14.421 6.699 22.8 6.699 22.429 0 40.783-17.423 42.579-39.56C226.162 189.889 234 174.191 234 156.625c0-16.129-6.612-30.676-17.214-41.112zm-3.05 76.245a51.993 51.993 0 0 1-5.386 4.973v.144c0 2.875-.342 5.664-.969 8.338-3.734 16.617-18.468 29.037-36.081 29.037-8.607 0-16.501-2.99-22.8-7.964-6.299 4.974-14.193 7.964-22.8 7.964-17.613 0-32.347-12.42-36.081-29.037a36.474 36.474 0 0 1-.969-8.338v-.144a51.998 51.998 0 0 1-5.387-4.973c-8.607-9.143-13.936-21.505-13.936-35.133 0-12.535 4.503-24.006 11.942-32.919 1.51-1.811 3.163-3.478 4.901-5.06a38.013 38.013 0 0 1-.37-5.146c0-.978.085-1.955.142-2.904.913-12.65 7.553-23.661 17.357-30.389a38.076 38.076 0 0 1 6.868-3.794 23.601 23.601 0 0 1 4.788-7.59c4.161-4.342 9.975-7.073 16.445-7.073 6.811 0 12.91 3.047 17.1 7.82 2.85-4.772 10.288-7.82 17.1-7.82 6.469 0 12.283 2.731 16.444 7.073a23.584 23.584 0 0 1 4.788 7.59 38.084 38.084 0 0 1 6.869 3.794c9.804 6.728 16.444 17.74 17.356 30.389.058.949.143 1.926.143 2.904 0 1.754-.143 3.479-.371 5.146 1.739 1.582 3.392 3.249 4.902 5.06 7.439 8.913 11.942 20.384 11.942 32.919 0 13.628-5.33 25.99-13.937 35.133z" fill="rgba(255, 131, 42, 0.3)"/></svg>
